images/facebook.svg

<svg id="Capa_1" data-name="Capa 1" xmlns="http://www.w3.org/2000/svg" viewBox="0 0 455.73 455.73"><defs><style>.cls-1{fill:#4a4a4a;}</style></defs><title>facebook</title><path class="cls-1" d="M0,0V455.73H242.7v-176H183.37V207.83H242.7V147.47A79.48,79.48,0,0,1,322.18,68h62v64.62H339.82a25.26,25.26,0,0,0-25.25,25.26v50h68.52l-9.47,71.86H314.57v176H455.73V0Z"/></svg>

<?xml version="1.0" encoding="utf-8"?>
<!-- Generator: Adobe Illustrator 23.0.3, SVG Export Plug-In . SVG Version: 6.00 Build 0)  -->
<svg version="1.1" id="Capa_1" xmlns="http://www.w3.org/2000/svg" xmlns:xlink="http://www.w3.org/1999/xlink" x="0px" y="0px"
	 viewBox="0 0 455.7 455.7" style="enable-background:new 0 0 455.7 455.7;" xml:space="preserve">
<style type="text/css">
	.st0{fill:#FFFFFF;}
</style>
<title>facebook</title>
<path class="st0" d="M0,0v455.7h242.7v-176h-59.3v-71.9h59.3v-60.4c0-43.9,35.6-79.5,79.5-79.5h62v64.6h-44.4
	c-13.9,0-25.2,11.3-25.2,25.3v50h68.5l-9.5,71.9h-59v176h141.2V0H0z"/>
</svg>
